ellipse-outline.svg

<svg fill="currentColor" viewBox="0 0 24 24"><path d="M12 6c4.41 0 8 2.69 8 6s-3.59 6-8 6-8-2.69-8-6 3.59-6 8-6m0-2C6.5 4 2 7.58 2 12s4.5 8 10 8 10-3.58 10-8-4.5-8-10-8"/></svg>

<svg  viewBox="0 0 24 24" fill="currentColor"><path  d="M12,6C16.41,6 20,8.69 20,12C20,15.31 16.41,18 12,18C7.59,18 4,15.31 4,12C4,8.69 7.59,6 12,6M12,4C6.5,4 2,7.58 2,12C2,16.42 6.5,20 12,20C17.5,20 22,16.42 22,12C22,7.58 17.5,4 12,4Z"/></svg>
